X:1
T:Title
%%score { 1 | 2 }
L:1/8
M:6/8
K:Bb
V:1 treble nm="Grand Piano"
V:2 bass 
V:1
 z3 z2[Q:1/4=84] [DF] | [DF]2 [DF] [DF]2 [DF] | GBB B B2 | c2 c c2 c | cBc [Fd]3 | %5
 [Fd]>[Ec][DB] [DB][FA][EG] | [DF][DF][B,D] [DF] [DF]2 | AAB ccB | ddc [DB]3 | GGG B3 | FFF [DB]3 | %11
 BBB Bcd | [=Ed][Ec][EB] [_Ec]3 | [Dd]>[Ec][DB] [DB][FA][EG] | [DF][DF][B,D] [DF] [DF]2 | AAB ccB | %16
 ddc [DB]3 |] %17
V:2
 z3 z2 [B,,B,] | [B,,B,]2 [B,,B,] [B,,B,]2 [B,,B,] | [E,B,E][E,G,E][E,G,E] [E,G,E] [G,B,E]2 | %3
 [F,A,E]2 [F,A,E] [F,A,E]2 [F,A,E] | [F,EF][F,DF][F,A,F] [B,,B,]3 | %5
 [B,,B,]2 [B,,B,] [B,,B,]2 [B,,B,] | [B,,B,][B,,B,][B,,F,] [B,,B,] [B,,B,]2 | %7
 [F,CE][F,CE][F,DF] [F,EF][F,EF][F,DF] | [F,B,F][F,B,F][F,A,E] [B,,B,]3 | %9
 [E,B,E][E,B,E][E,B,E] [G,B,E]3 | [B,D][F,B,D][D,B,D] [B,,F,]3 | %11
 [G,B,D][G,B,D][G,B,D] [G,B,D][G,B,D][G,B,D] | [C,B,][C,B,][C,B,] [F,A,]3 | %13
 [B,,B,]>[B,,B,][B,,B,] [B,,B,][B,,B,][B,,B,] | [B,,B,][B,,B,][B,,F,] [B,,B,] [B,,B,]2 | %15
 [F,CE][F,CE][F,DF] [F,EF][F,EF][F,DF] | [F,B,F][F,B,F][F,A,E] [B,,B,]3 |] %17

